src/scalable/places-circle/brown-folder-games.svg

<?xml version="1.0" encoding="UTF-8" standalone="no"?>
<svg
   width="64"
   height="64"
   version="1.1"
   viewBox="0 0 16.933 16.933"
   id="svg19"
   sodipodi:docname="brown-folder-games.svg"
   inkscape:version="1.1.1 (3bf5ae0d25, 2021-09-20)"
   xmlns:inkscape="http://www.inkscape.org/namespaces/inkscape"
   xmlns:sodipodi="http://sodipodi.sourceforge.net/DTD/sodipodi-0.dtd"
   xmlns="http://www.w3.org/2000/svg"
   xmlns:svg="http://www.w3.org/2000/svg">
  <sodipodi:namedview
     id="namedview21"
     pagecolor="#505050"
     bordercolor="#ffffff"
     borderopacity="1"
     inkscape:pageshadow="0"
     inkscape:pageopacity="0"
     inkscape:pagecheckerboard="1"
     showgrid="false"
     inkscape:zoom="11.1875"
     inkscape:cx="31.955307"
     inkscape:cy="32"
     inkscape:window-width="1920"
     inkscape:window-height="1000"
     inkscape:window-x="0"
     inkscape:window-y="44"
     inkscape:window-maximized="1"
     inkscape:current-layer="svg19" />
  <defs
     id="defs7">
    <linearGradient
       id="c"
       x1="42"
       x2="44"
       y1="51"
       y2="55"
       gradientUnits="userSpaceOnUse">
      <stop
         offset="0"
         id="stop2" />
      <stop
         stop-opacity="0"
         offset="1"
         id="stop4" />
    </linearGradient>
  </defs>
  <circle
     cx="8.4665"
     cy="8.4665"
     r="7.4082"
     fill="#63463b"
     style="paint-order:stroke fill markers"
     id="circle9" />
  <path
     transform="scale(.26458)"
     d="m16.17 14a24 24 0 0 0-8.1699 18 24 24 0 0 0 24 24 24 24 0 0 0 24-24 24 24 0 0 0-8.1582-18h-31.672z"
     fill="#fff"
     style="paint-order:stroke fill markers"
     id="path11" />
  <path
     d="m7.9374 4.2333c-0.35022 0-0.6429 0.27778-0.79374 0.52916l-0.31728 0.52916h-5.0432c-0.47418 0.99143-0.72183 2.076-0.725 3.175-2e-7 4.0915 3.3168 7.4082 7.4082 7.4082 4.0915 0 7.4082-3.3168 7.4082-7.4082-0.002675-1.005-0.20979-1.9988-0.60875-2.9212-0.20522-0.45891-0.46987-0.93487-0.73069-1.3121z"
     fill="#795548"
     stroke-width=".26458"
     style="paint-order:stroke fill markers"
     id="path13" />
  <path
     transform="scale(.26458)"
     d="m32 4a28 28 0 0 0-18.467 7h36.951a28 28 0 0 0-18.484-7z"
     opacity=".15"
     style="paint-order:stroke fill markers"
     id="path15" />
  <path
     transform="scale(.26458)"
     d="m57.312 43.891-27.693 15.99a28 28 0 0 0 2.3809 0.11914 28 28 0 0 0 25.312-16.109z"
     fill="url(#c)"
     opacity=".1"
     style="paint-order:stroke fill markers"
     id="path17" />
  <path
     d="m 9.8680695,7.934698 c -0.0797,3.175e-4 -0.15345,0.026458 -0.222902,0.076064 -0.175278,0.1263334 -0.53839,0.2579557 -1.176685,0.2579557 -0.641575,0 -1.00537,-0.131625 -1.180653,-0.2579557 -0.069449,-0.049609 -0.135591,-0.072757 -0.2149644,-0.072757 -0.079371,0 -0.1723012,0.023151 -0.2682028,0.072756 C 6.4640179,8.1933152 6.1465506,8.7826418 5.9745749,9.5515587 5.8290622,10.207686 5.7761466,11.09897 5.8621318,11.457791 c 0.076064,0.311541 0.20835,0.448116 0.4431684,0.448116 0.3439515,-0.0066 0.7771717,-0.392237 1.0549788,-0.912768 0.1984283,-0.28839 0.6614188,-0.417689 1.1078945,-0.404143 0.443168,-0.01654 0.906497,0.11575 1.104905,0.404143 0.277807,0.520531 0.7107085,0.906153 1.0579415,0.912768 0.2315,0 0.363795,-0.136586 0.439861,-0.448116 0.08598,-0.358821 0.03307,-1.250105 -0.112443,-1.9062323 C 10.786467,8.7826418 10.468995,8.1933205 10.12835,8.0111055 10.0341,7.9595125 9.9481125,7.9343805 9.8680805,7.9350415 Z M 7.1437085,8.9294853 H 7.4744312 V 9.2602079 H 7.8051538 V 9.5909306 H 7.4744312 V 9.9216532 H 7.1437085 V 9.5909306 H 6.8129859 V 9.2602079 h 0.3307226 z m 2.480341,0 a 0.16535603,0.16535603 0 0 1 0.165356,0.165356 0.16535603,0.16535603 0 0 1 -0.165356,0.165356 0.16535603,0.16535603 0 0 1 -0.165356,-0.165356 0.16535603,0.16535603 0 0 1 0.165356,-0.165356 z M 9.2933265,9.2602079 A 0.16535603,0.16535603 0 0 1 9.4586825,9.425564 0.16535603,0.16535603 0 0 1 9.2933265,9.59092 0.16535603,0.16535603 0 0 1 9.1279705,9.425564 0.16535603,0.16535603 0 0 1 9.2933265,9.2602079 Z m 0.661419,0 A 0.16535603,0.16535603 0 0 1 10.120101,9.425564 0.16535603,0.16535603 0 0 1 9.9547455,9.59092 0.16535603,0.16535603 0 0 1 9.7893895,9.425564 0.16535603,0.16535603 0 0 1 9.9547455,9.2602079 Z m -0.330723,0.3307227 a 0.16535603,0.16535603 0 0 1 0.165356,0.165356 0.16535603,0.16535603 0 0 1 -0.165356,0.165356 0.16535603,0.16535603 0 0 1 -0.165356,-0.165356 0.16535603,0.16535603 0 0 1 0.165356,-0.165356 z"
     color="#727272"
     fill="#ffffff"
     id="path28"
     style="stroke-width:0.264578" />
</svg>

<svg width="64" height="64" viewBox="0 0 16.933 16.933" xmlns="http://www.w3.org/2000/svg"><defs><linearGradient id="a" x1="42" x2="44" y1="51" y2="55" gradientUnits="userSpaceOnUse"><stop offset="0"/><stop stop-opacity="0" offset="1"/></linearGradient></defs><circle cx="8.466" cy="8.466" r="7.408" fill="#63463b" style="paint-order:stroke fill markers"/><path transform="scale(.26458)" d="M16.17 14A24 24 0 0 0 8 32a24 24 0 0 0 24 24 24 24 0 0 0 24-24 24 24 0 0 0-8.158-18H16.17z" fill="#fff" style="paint-order:stroke fill markers"/><path d="M7.937 4.233c-.35 0-.643.278-.793.53l-.318.529H1.783a7.408 7.408 0 0 0-.725 3.175 7.408 7.408 0 1 0 14.817 0 7.408 7.408 0 0 0-.61-2.922 8.525 8.525 0 0 0-.73-1.312z" fill="#795548" style="paint-order:stroke fill markers"/><path transform="scale(.26458)" d="M32 4a28 28 0 0 0-18.467 7h36.951A28 28 0 0 0 32 4z" opacity=".15" style="paint-order:stroke fill markers"/><path transform="scale(.26458)" d="m57.312 43.891-27.693 15.99a28 28 0 0 0 2.38.12 28 28 0 0 0 25.313-16.11z" fill="url(#a)" opacity=".1" style="paint-order:stroke fill markers"/><path d="M9.868 7.935a.38.38 0 0 0-.223.076c-.175.126-.538.258-1.177.258-.641 0-1.005-.132-1.18-.258a.351.351 0 0 0-.215-.073.596.596 0 0 0-.268.073c-.341.182-.658.772-.83 1.54-.146.657-.199 1.548-.113 1.907.076.311.208.448.443.448.344-.007.777-.392 1.055-.913.199-.288.662-.418 1.108-.404.443-.017.907.116 1.105.404.278.52.71.906 1.058.913.232 0 .364-.137.44-.448.086-.359.033-1.25-.113-1.906-.172-.77-.489-1.359-.83-1.54a.536.536 0 0 0-.26-.077Zm-2.724.994h.33v.331h.331v.33h-.33v.332h-.331V9.59h-.331v-.33h.33zm2.48 0a.165.165 0 0 1 .165.166.165.165 0 0 1-.165.165.165.165 0 0 1-.165-.165.165.165 0 0 1 .165-.166zm-.33.331a.165.165 0 0 1 .165.166.165.165 0 0 1-.166.165.165.165 0 0 1-.165-.165.165.165 0 0 1 .165-.166Zm.66 0a.165.165 0 0 1 .166.166.165.165 0 0 1-.165.165.165.165 0 0 1-.166-.165.165.165 0 0 1 .166-.166Zm-.33.33a.165.165 0 0 1 .165.166.165.165 0 0 1-.165.166.165.165 0 0 1-.165-.166.165.165 0 0 1 .165-.165z" color="#727272" fill="#fff" style="stroke-width:.264578"/></svg>
